X: 5
T:Mairie's Wedding
% Nottingham Music Database
S:Kay Graham, via EF
M:4/4
L:1/4
K:D
P:A
[d/2f/2][B/2d/2]|"D"[A3/2d3/2][A/2d/2] [Ad][Bd]|"D"[df][eg] [f2a2]|"G"[eg][dg] [Bd][dg]|"A7"[fa][eg] [f2a2]|"D"[A3/2d3/2][A/2d/2] [Ad][Bd]|"D"[df][eg] [f2a2]|\
"G"[eg][dg] [Bd][GB]|"A7"[A3c3]:|
P:B
[f/2a/2][g/2a/2]|"D"[a3/2d'3/2][a/2d'/2] [ad'][bd']|"Bm"[ac'][gb] [f2b2]|"E7"[e^g][de] [Bd][de]|"A"[fa][ea] [f2a2]|"F#m"[a3/2c'3/2][a/2c'/2] [ac'][bd']|"Bm"[ac'][gb] [f2b2]|\
"Em"[eg][df] [Be][GB]|"A7"[A3c3]:|


